sourses/img/Vector.svg

<svg width="80" height="96" viewBox="0 0 80 96" fill="none" xmlns="http://www.w3.org/2000/svg">
<path d="M75.9334 70.7269C73.8227 67.4599 70.9223 64.8639 67.5246 63.1875C67.2381 62.9214 66.8697 62.7431 66.46 62.6976C64.0024 61.6543 61.4119 61.125 58.75 61.125H53.125V56.1782C56.3802 53.3852 58.7204 49.6858 59.8551 45.5625H60.625C64.7605 45.5625 68.125 42.198 68.125 38.0625C68.125 36.1027 67.3686 34.317 66.1334 32.9794C66.2513 32.8792 66.3664 32.775 66.4771 32.6646C67.5398 31.6018 68.125 30.1894 68.125 28.6875C68.125 26.2194 66.5264 24.1189 64.3107 23.3632C63.6483 14.7412 57.5971 7.37325 49.2655 5.064C48.7718 2.4855 46.6439 0 43.75 0H36.25C33.3561 0 31.2282 2.4855 30.7345 5.064C22.4037 7.37306 16.3531 14.7397 15.6895 23.3606C14.8829 23.6342 14.1432 24.0904 13.5229 24.7104C12.4602 25.7732 11.875 27.1856 11.875 28.6875C11.875 30.4056 12.6501 31.9453 13.8681 32.9779C12.6321 34.3155 11.875 36.102 11.875 38.0625C11.875 42.198 15.2395 45.5625 19.375 45.5625H20.1396C21.0869 49.0044 22.8829 52.1644 25.3885 54.7746C25.8593 55.2654 26.3584 55.7331 26.875 56.1767V61.125H21.25C18.5879 61.125 15.9974 61.6543 13.54 62.6974C13.1305 62.7431 12.7619 62.9212 12.4756 63.1873C9.0775 64.8639 6.17725 67.4599 4.06656 70.7267C1.81506 74.2118 0.625 78.2181 0.625 82.3125V94.125C0.625 95.1604 1.46444 96 2.5 96H77.5C78.5356 96 79.375 95.1604 79.375 94.125V82.3125C79.375 78.2181 78.1849 74.2117 75.9334 70.7269ZM11.875 92.25H4.375V82.3125C4.375 76.6093 7.29663 71.1429 11.875 67.8979V92.25ZM60.625 41.8125H60.5395C60.5954 41.1887 60.625 40.5626 60.625 39.9375V34.3125C62.6927 34.3125 64.375 35.9948 64.375 38.0625C64.375 40.1302 62.6927 41.8125 60.625 41.8125ZM30.625 9.02606V17.4375C30.625 18.4731 31.4644 19.3125 32.5 19.3125C33.5356 19.3125 34.375 18.4731 34.375 17.4375V6.57431C34.375 6.56944 34.375 6.56456 34.375 6.55969V6.1875C34.375 5.02575 35.3564 3.75 36.25 3.75H43.75C44.6436 3.75 45.625 5.02575 45.625 6.1875V6.55969C45.625 6.56456 45.625 6.56944 45.625 6.57431V17.4375C45.625 18.4731 46.4644 19.3125 47.5 19.3125C48.5356 19.3125 49.375 18.4731 49.375 17.4375V9.02606C55.4294 11.1686 59.8 16.6474 60.5202 23.0625H19.4798C20.2 16.6474 24.5706 11.1686 30.625 9.02606ZM19.375 41.8125C17.3073 41.8125 15.625 40.1302 15.625 38.0625C15.625 35.9948 17.3073 34.3125 19.375 34.3125V39.9375C19.375 40.5626 19.4046 41.1889 19.4605 41.8125H19.375ZM19.375 30.5625H17.5C16.4661 30.5625 15.625 29.7214 15.625 28.6875C15.625 28.1873 15.8202 27.7164 16.1746 27.3623C16.5291 27.0077 16.9998 26.8125 17.5 26.8125H62.5C63.5339 26.8125 64.375 27.6536 64.375 28.6875C64.375 29.1877 64.1798 29.6586 63.8254 30.0127C63.4711 30.3673 63.0003 30.5625 62.5 30.5625H60.625H58.75H21.25H19.375ZM23.4657 43.3468C23.4619 43.3264 23.4584 43.3061 23.4539 43.2861C23.2362 42.1856 23.125 41.0593 23.125 39.9375V34.3125H56.875V39.9375C56.875 41.0584 56.7638 42.1839 56.5461 43.2853C56.5416 43.3056 56.5381 43.326 56.5343 43.3464C55.6964 47.529 53.3774 51.273 50.0005 53.8916C47.0669 56.1705 43.6088 57.375 40 57.375C36.3912 57.375 32.9331 56.1705 29.9967 53.8896C29.3245 53.3694 28.6847 52.794 28.0945 52.1784C25.7292 49.7143 24.1294 46.6616 23.4657 43.3468ZM38.125 92.25H23.125V87.9375C23.125 86.9019 22.2856 86.0625 21.25 86.0625C20.2144 86.0625 19.375 86.9019 19.375 87.9375V92.25H15.625V65.9014C16.8419 65.4426 18.0955 65.1367 19.375 64.986V76.6875C19.375 77.7231 20.2144 78.5625 21.25 78.5625C22.2856 78.5625 23.125 77.7231 23.125 76.6875V64.875H27.9466L38.125 75.5625V92.25ZM30.625 62.25V58.7576C33.5183 60.3129 36.7051 61.125 40 61.125C43.2951 61.125 46.4821 60.3128 49.375 58.7578V62.25L40 72.0938L30.625 62.25ZM64.375 92.25H60.625V87.9375C60.625 86.9019 59.7856 86.0625 58.75 86.0625C57.7144 86.0625 56.875 86.9019 56.875 87.9375V92.25H41.875V75.5625L52.0534 64.875H56.875V76.6875C56.875 77.7231 57.7144 78.5625 58.75 78.5625C59.7856 78.5625 60.625 77.7231 60.625 76.6875V64.986C61.9045 65.1367 63.1579 65.4427 64.375 65.9016V92.25ZM75.625 92.25H68.125V67.8977C72.7034 71.1428 75.625 76.6091 75.625 82.3125V92.25Z" fill="#D7A950"/>
</svg>

<svg width="80" height="96" fill="none" xmlns="http://www.w3.org/2000/svg"><path d="M75.933 70.727c-2.11-3.267-5.01-5.863-8.408-7.54a1.864 1.864 0 00-1.065-.49 19.614 19.614 0 00-7.71-1.572h-5.625v-4.947a21.507 21.507 0 006.73-10.615h.77c4.135 0 7.5-3.365 7.5-7.5a7.47 7.47 0 00-1.992-5.084 5.588 5.588 0 001.992-4.292 5.634 5.634 0 00-3.814-5.324c-.663-8.622-6.714-15.99-15.046-18.299C48.773 2.485 46.645 0 43.75 0h-7.5c-2.894 0-5.022 2.486-5.515 5.064-8.331 2.31-14.382 9.676-15.045 18.297a5.607 5.607 0 00-2.167 1.35 5.588 5.588 0 00-1.648 3.977c0 1.718.775 3.257 1.993 4.29a7.47 7.47 0 00-1.993 5.084c0 4.136 3.364 7.5 7.5 7.5h.765a21.553 21.553 0 006.735 10.615v4.948H21.25c-2.662 0-5.253.53-7.71 1.572-.41.046-.778.224-1.064.49-3.399 1.677-6.299 4.273-8.41 7.54-2.249 3.485-3.44 7.491-3.44 11.585v11.813A1.874 1.874 0 002.5 96h75c1.036 0 1.875-.84 1.875-1.875V82.312c0-4.094-1.19-8.1-3.442-11.585zM11.875 92.25h-7.5v-9.938c0-5.703 2.922-11.17 7.5-14.414V92.25zm48.75-50.438h-.086c.056-.623.086-1.25.086-1.874v-5.626a3.754 3.754 0 013.75 3.75 3.754 3.754 0 01-3.75 3.75zm-30-32.786v8.412a1.875 1.875 0 103.75 0V6.187c0-1.162.981-2.438 1.875-2.438h7.5c.894 0 1.875 1.276 1.875 2.438v11.249a1.875 1.875 0 103.75 0v-8.41c6.054 2.142 10.425 7.62 11.145 14.036H19.48c.72-6.416 5.09-11.894 11.145-14.037zm-11.25 32.787a3.754 3.754 0 01-3.75-3.75 3.754 3.754 0 013.75-3.75v5.624c0 .626.03 1.252.085 1.876h-.085zm0-11.25H17.5a1.877 1.877 0 01-1.875-1.875c0-.5.195-.972.55-1.326.354-.354.825-.55 1.325-.55h45c1.034 0 1.875.842 1.875 1.875 0 .5-.195.972-.55 1.326-.354.354-.825.55-1.325.55H19.375zm4.09 12.784l-.011-.06a17.293 17.293 0 01-.329-3.35v-5.624h33.75v5.624c0 1.121-.111 2.247-.329 3.348l-.012.061a17.761 17.761 0 01-6.533 10.546C47.067 56.17 43.608 57.375 40 57.375c-3.609 0-7.067-1.205-10.003-3.485a17.78 17.78 0 01-6.531-10.543zm14.66 48.903h-15v-4.313a1.875 1.875 0 10-3.75 0v4.313h-3.75V65.901a15.869 15.869 0 013.75-.915v11.701a1.875 1.875 0 103.75 0V64.876h4.822l10.178 10.688V92.25zm-7.5-30v-3.492A19.703 19.703 0 0040 61.125c3.295 0 6.482-.812 9.375-2.367v3.492L40 72.094l-9.375-9.844zm33.75 30h-3.75v-4.313a1.875 1.875 0 10-3.75 0v4.313h-15V75.562l10.178-10.687h4.822v11.813a1.875 1.875 0 103.75 0V64.986c1.28.15 2.533.457 3.75.916V92.25zm11.25 0h-7.5V67.898c4.578 3.245 7.5 8.711 7.5 14.415v9.937z" fill="#D7A950"/></svg>
